app/assets/images/general/icons/close-modal.svg

<svg width="12" height="12" viewBox="0 0 12 12" fill="none" xmlns="http://www.w3.org/2000/svg">
<path d="M11.6701 0.338148C11.4422 0.110266 11.0731 0.110266 10.8452 0.338148L6.00763 5.17575L1.17008 0.338204C0.942198 0.110321 0.573057 0.110321 0.345228 0.338204C0.117346 0.566086 0.117346 0.935227 0.345228 1.16306L5.18278 6.0006L0.345228 10.8381C0.117346 11.066 0.117346 11.4352 0.345228 11.663C0.459143 11.7769 0.60844 11.8339 0.757682 11.8339C0.906924 11.8339 1.05617 11.7769 1.17013 11.663L6.00763 6.82545L10.8452 11.663C10.9591 11.7769 11.1084 11.8339 11.2576 11.8339C11.4069 11.8339 11.5561 11.7769 11.6701 11.663C11.898 11.4351 11.898 11.066 11.6701 10.8381L6.83248 6.0006L11.67 1.16306C11.8979 0.935173 11.8979 0.566031 11.6701 0.338148Z" fill="#828282"/>
</svg>

<svg width="12" height="12" fill="none" xmlns="http://www.w3.org/2000/svg"><path d="M11.67.338a.583.583 0 00-.825 0L6.008 5.176 1.17.338a.583.583 0 10-.825.825l4.838 4.838-4.838 4.837a.583.583 0 10.825.825l4.838-4.838 4.837 4.838a.582.582 0 00.825 0 .583.583 0 000-.825L6.832 6.001l4.838-4.838a.583.583 0 000-.825z" fill="#828282"/></svg>
